public/images/hashed/54ce30b66cb57d2dcf625519fd1265ea.svg

<?xml version="1.0" encoding="UTF-8"?>
<svg width="80px" height="80px" viewBox="0 0 80 80" version="1.1" xmlns="http://www.w3.org/2000/svg" xmlns:xlink="http://www.w3.org/1999/xlink">
    <!-- Generator: Sketch 64 (93537) - https://sketch.com -->
    <title>Icon-Architecture/64/Arch_AWS-Elemental-MediaPackage_64</title>
    <desc>Created with Sketch.</desc>
    <defs>
        <linearGradient x1="0%" y1="100%" x2="100%" y2="0%" id="linearGradient-1">
            <stop stop-color="#C8511B" offset="0%"></stop>
            <stop stop-color="#FF9900" offset="100%"></stop>
        </linearGradient>
    </defs>
    <g id="Icon-Architecture/64/Arch_AWS-Elemental-MediaPackage_64" stroke="none" stroke-width="1" fill="none" fill-rule="evenodd">
        <g id="Icon-Architecture-BG/64/Media-Services" fill="url(#linearGradient-1)">
            <rect id="Rectangle" x="0" y="0" width="80" height="80"></rect>
        </g>
        <path d="M26,48.3817923 L26,42.6177313 L31,40.1177048 L36,42.6177313 L36,48.3817923 L31,50.8818188 L26,48.3817923 Z M54,42.6177313 L54,48.3817923 L49,50.8818188 L44,48.3817923 L44,42.6177313 L49,40.1177048 L54,42.6177313 Z M62,51.3828241 L56,48.3887924 L56,41.9997247 C56,41.6207207 55.786,41.274717 55.447,41.1057153 L49.447,38.1056835 C49.166,37.964682 48.834,37.964682 48.553,38.1056835 L42.553,41.1057153 C42.214,41.274717 42,41.6207207 42,41.9997247 L42,48.9997988 C42,49.3788028 42.214,49.7248065 42.553,49.8948083 L48.553,52.8948401 C48.834,53.0348416 49.166,53.0348416 49.447,52.8948401 L54.992,50.1218107 L60.935,53.0868421 L41,65.2209706 L41,54.9998624 L39,54.9998624 L39,65.2209706 L19.064,53.0858421 L25,50.1178107 L30.553,52.8948401 C30.693,52.9648408 30.847,52.9998412 31,52.9998412 C31.153,52.9998412 31.307,52.9648408 31.447,52.8948401 L37.447,49.8948083 C37.786,49.7248065 38,49.3788028 38,48.9997988 L38,41.9997247 C38,41.6207207 37.786,41.274717 37.447,41.1057153 L31.447,38.1056835 C31.166,37.964682 30.834,37.964682 30.553,38.1056835 L24.553,41.1057153 C24.214,41.274717 24,41.6207207 24,41.9997247 L24,48.3817923 L18,51.3818241 L18,28.7655846 L26.485,33.8576385 L27.515,32.1426204 L18.986,27.0255662 L39,15.7134464 L39,22.381517 L33.553,25.1055458 C33.214,25.2745476 33,25.6205513 33,25.9995553 L33,32.9996294 C33,33.3776334 33.213,33.7226371 33.55,33.8926389 L39.55,36.9156709 C39.833,37.0576724 40.167,37.0576724 40.45,36.9156709 L46.45,33.8926389 C46.787,33.7226371 47,33.3776334 47,32.9996294 L47,25.9995553 C47,25.6205513 46.786,25.2745476 46.447,25.1055458 L41,22.381517 L41,15.6494457 L61.003,26.0855562 L51.463,32.1556205 L52.537,33.8436384 L62,27.8215746 L62,51.3828241 Z M40,24.1175354 L45,26.6175619 L45,32.3836229 L40,34.9026496 L35,32.3836229 L35,26.6175619 L40,24.1175354 Z M63.463,25.1125459 L40.463,13.1124189 C40.161,12.9564172 39.802,12.9634173 39.508,13.129419 L16.508,26.1295567 C16.194,26.3065586 16,26.6395621 16,26.9995659 L16,52.9998412 C16,53.3488449 16.182,53.6728483 16.48,53.8538502 L39.48,67.8539985 C39.64,67.9509995 39.82,68 40,68 C40.18,68 40.36,67.9509995 40.52,67.8539985 L63.52,53.8538502 C63.818,53.6728483 64,53.3488449 64,52.9998412 L64,25.9995553 C64,25.6275514 63.793,25.2855478 63.463,25.1125459 L63.463,25.1125459 Z" id="AWS-Elemental-MediaPackage_Icon_64_Squid" fill="#FFFFFF"></path>
    </g>
</svg>

<svg xmlns="http://www.w3.org/2000/svg" width="80" height="80"><defs><linearGradient id="a" x1="0%" x2="100%" y1="100%" y2="0%"><stop offset="0%" stop-color="#C8511B"/><stop offset="100%" stop-color="#F90"/></linearGradient></defs><g fill="none" fill-rule="evenodd"><path fill="url(#a)" d="M0 0h80v80H0z"/><path fill="#FFF" d="M26 48.382v-5.764l5-2.5 5 2.5v5.764l-5 2.5-5-2.5Zm28-5.764v5.764l-5 2.5-5-2.5v-5.764l5-2.5 5 2.5Zm8 8.765-6-2.994v-6.39a.998.998 0 0 0-.553-.893l-6-3a.998.998 0 0 0-.894 0l-6 3A.998.998 0 0 0 42 42v7c0 .379.214.725.553.895l6 3c.281.14.613.14.894 0l5.545-2.773 5.943 2.965L41 65.22V55h-2V65.22L19.064 53.086 25 50.118l5.553 2.777a1.001 1.001 0 0 0 .894 0l6-3c.339-.17.553-.516.553-.895v-7a.998.998 0 0 0-.553-.894l-6-3a.998.998 0 0 0-.894 0l-6 3A.998.998 0 0 0 24 42v6.382l-6 3V28.766l8.485 5.092 1.03-1.715-8.529-5.117L39 15.713v6.669l-5.447 2.724A.998.998 0 0 0 33 26v7a1 1 0 0 0 .55.893l6 3.023c.283.142.617.142.9 0l6-3.023A1 1 0 0 0 47 33v-7a.998.998 0 0 0-.553-.894L41 22.382v-6.733l20.003 10.437-9.54 6.07 1.074 1.688L62 27.822v23.56ZM40 24.118l5 2.5v5.766l-5 2.519-5-2.52v-5.765l5-2.5Zm23.463.995-23-12a1.005 1.005 0 0 0-.955.016l-23 13A1 1 0 0 0 16 27v26a1 1 0 0 0 .48.855l23 14a1.003 1.003 0 0 0 1.04 0l23-14A1 1 0 0 0 64 53V26c0-.372-.207-.714-.537-.887Z"/></g></svg>
